X:143
T:Copenhagen Waltz. JGi.143
M:3/8
L:1/16
Q:3/8=50
S:Joshua Gibbons MS,1823,Tealby,Lincs.
R:waltz
N:A bar missing? CGP.
O:Tealby,Lincolnshire
Z:VMP/R.Greig, 2009
K:C
e<g|f<a e<g d<f|c<g G2 c<e|d<f G2 e<g|f<a e<g d<f|
c<e G2 c<e|d<f G2 B<d|c4::c<e|d<f G2 B<d|c<e G2 B<d|
c<e G2 c<e|d<f G2 B<d|c<e G2 e<g|f<a e<g d<f|c<e G2 c<e|d<f G2 B<d|c4:|
|:g|a2g2e2|c4g2|a2g2e2|d4g2|a2g2e2|(cBcege)|(d^cdefe)|”DC”c4:|

